lib/svg/home.svg

<svg xmlns="http://www.w3.org/2000/svg" width="16" height="16" viewBox="0 0 16 16"><path d="M16 9l-3-3V2h-2v2L8 1 0 9h2l1 5c0 .55.45 1 1 1h8c.55 0 1-.45 1-1l1-5h2zm-4 5H9v-4H7v4H4L2.81 7.69 8 2.5l5.19 5.19L12 14z"/></svg>

<?xml version="1.0" encoding="UTF-8" standalone="no"?>
<svg width="16px" height="16px" viewBox="0 0 16 16" version="1.1" xmlns="http://www.w3.org/2000/svg" xmlns:xlink="http://www.w3.org/1999/xlink">
    <!-- Generator: Sketch 3.8.3 (29802) - http://www.bohemiancoding.com/sketch -->
    <title>home</title>
    <desc>Created with Sketch.</desc>
    <defs></defs>
    <g id="Octicons" stroke="none" stroke-width="1" fill="none" fill-rule="evenodd">
        <g id="home" fill="#000000">
            <path d="M16,9 L13,6 L13,2 L11,2 L11,4 L8,1 L0,9 L2,9 L3,14 C3,14.55 3.45,15 4,15 L12,15 C12.55,15 13,14.55 13,14 L14,9 L16,9 L16,9 Z M12,14 L9,14 L9,10 L7,10 L7,14 L4,14 L2.81,7.69 L8,2.5 L13.19,7.69 L12,14 L12,14 Z" id="Shape"></path>
        </g>
    </g>
</svg>
